svg/puzzle_heart.svg

<svg xmlns="http://www.w3.org/2000/svg" viewBox="0 0 24 24"><path d="m19 22.3-.6-.5c-2-1.9-3.4-3.1-3.4-4.6 0-1.2 1-2.2 2.2-2.2.7 0 1.4.3 1.8.8.4-.5 1.1-.8 1.8-.8 1.2 0 2.2.9 2.2 2.2 0 1.5-1.4 2.7-3.4 4.6zM20.5 11H19V7a2 2 0 0 0-2-2h-4V3.5a2.5 2.5 0 0 0-5 0V5H4c-1.1 0-2 .9-2 2v3.8h1.5c1.5 0 2.7 1.2 2.7 2.7S5 16.2 3.5 16.2H2V20a2 2 0 0 0 2 2h3.8v-1.5c0-1.5 1.2-2.7 2.7-2.7.94 0 1.77.47 2.25 1.2h.34c-.05-.33-.09-.66-.09-1 0-3.31 2.69-6 6-6 1.54 0 2.94.58 4 1.53v-.03a2.5 2.5 0 0 0-2.5-2.5"/></svg>

<?xml version="1.0" encoding="UTF-8"?><!DOCTYPE svg PUBLIC "-//W3C//DTD SVG 1.1//EN" "http://www.w3.org/Graphics/SVG/1.1/DTD/svg11.dtd"><svg xmlns="http://www.w3.org/2000/svg" xmlns:xlink="http://www.w3.org/1999/xlink" version="1.1" id="mdi-puzzle-heart" width="24" height="24" viewBox="0 0 24 24"><path d="M19 22.3L18.4 21.8C16.4 19.9 15 18.7 15 17.2C15 16 16 15 17.2 15C17.9 15 18.6 15.3 19 15.8C19.4 15.3 20.1 15 20.8 15C22 15 23 15.9 23 17.2C23 18.7 21.6 19.9 19.6 21.8L19 22.3M20.5 11H19V7C19 5.89 18.1 5 17 5H13V3.5C13 2.12 11.88 1 10.5 1S8 2.12 8 3.5V5H4C2.9 5 2 5.9 2 7V10.8H3.5C5 10.8 6.2 12 6.2 13.5S5 16.2 3.5 16.2H2V20C2 21.11 2.9 22 4 22H7.8V20.5C7.8 19 9 17.8 10.5 17.8C11.44 17.8 12.27 18.27 12.75 19H13.09C13.04 18.67 13 18.34 13 18C13 14.69 15.69 12 19 12C20.54 12 21.94 12.58 23 13.53C23 13.5 23 13.5 23 13.5C23 12.12 21.88 11 20.5 11Z" /></svg>
